X:7
T:For the Sakes of Old Decency
T:Farewell to Old Decency
R:reel
D:Chieftains Live.
D:Michael Tubridy: The Eagle's Whistle.
Z:id:hn-reel-7
M:C|
K:G
d2BG AGEG|DGBG A2AB|d2BG AGEG|1 DGAG EGAB:|2 DGAG EG~G2||
|:~G3B d2Bd|eaag eg~g2|~G3B d2Bd|1 dega bged:|2 dega bage||
